source/svgs/bowtie/uE985-save-close.svg

<svg xmlns="http://www.w3.org/2000/svg" viewBox="0 0 448 448" enable-background="new 0 0 448 448"><path d="M192 384h64v64h-64v-64zm35.875-320l-32 32h188.125v96h-115.2l-72.112 72.563-84.688-84.688-48 48v172.125l48 48h48v-128h192v128h96v-384h-220.125zm-8.562-36.687l-22.625-22.625-84.688 84.687-84.687-84.687-22.625 22.625 84.687 84.687-84.687 84.688 22.625 22.625 84.687-84.688 84.688 84.688 22.625-22.625-84.688-84.688 84.688-84.687z"/></svg>

<svg xmlns="http://www.w3.org/2000/svg" viewBox="0 0 448 448"><path d="M192 384h64v64h-64v-64zm35.875-320l-32 32H384v96H268.8l-72.112 72.563L112 179.875l-48 48V400l48 48h48V320h192v128h96V64H227.875zm-8.562-36.687L196.688 4.688 112 89.375 27.313 4.688 4.688 27.313 89.375 112 4.688 196.688l22.625 22.625L112 134.625l84.688 84.688 22.625-22.625L134.625 112l84.688-84.687z"/></svg>
